X:746
T:Aandowin At Da Bow
C:Joe Buchanan's Scottish Tome - Page 186.3
I:186 3
Z:Carl Allison
R:Shetland Reel
L:1/8
M:4/4
K:G
v(A | BG)AG !snap!E2 D2 | v(BG)(AG) BGAd | BGAG !snap!E2 (DE) | GABA G2 G :|
u(g | eg)dB AG E2 | u(eg)dg egvd(g | eg)dB AG Eu(e | !>!g2 g)(vg a)(uf g2) |
egdg egvdu(g | eg)dB vA(GED) | GAG !snap!E2 (uDE) | (GG)BA G3 |]
